assets/icons/kids/edit-2.svg

<svg width="20" height="20" viewBox="0 0 20 20" fill="none" xmlns="http://www.w3.org/2000/svg">
<path d="M7.43441 16.6825L16.8499 7.26696C17.5004 6.6165 17.6274 5.93719 17.1388 5.44864C16.6892 4.99897 15.612 3.90497 14.8712 3.16416C14.0155 2.30845 13.1857 2.89473 12.806 3.22303L3.39048 12.6385C3.01304 13.016 2.87579 13.4033 2.85434 13.5498C2.80336 14.0757 2.68561 15.3512 2.62241 16.2461C2.55921 17.141 3.4092 17.4321 3.84209 17.4658C4.51517 17.3928 5.98753 17.235 6.49239 17.1879C6.99726 17.1407 7.33077 16.8313 7.43441 16.6825Z" fill="#29B6F6"/>
<mask id="mask0_15807_48784" style="mask-type:alpha" maskUnits="userSpaceOnUse" x="2" y="2" width="16" height="16">
<path d="M7.43343 16.6825L16.8489 7.26696C17.4994 6.6165 17.6264 5.93719 17.1379 5.44864C16.6882 4.99897 15.611 3.90497 14.8702 3.16416C14.0145 2.30845 13.1847 2.89473 12.805 3.22303L3.3895 12.6385C3.01207 13.016 2.87481 13.4033 2.85336 13.5498C2.80239 14.0757 2.68464 15.3512 2.62143 16.2461C2.55823 17.141 3.40822 17.4321 3.84112 17.4658C4.51419 17.3928 5.98655 17.235 6.49142 17.1879C6.99628 17.1407 7.32979 16.8313 7.43343 16.6825Z" fill="#D9D9D9"/>
</mask>
<g mask="url(#mask0_15807_48784)">
<rect width="8.3096" height="4.83772" transform="matrix(-0.707107 -0.707107 -0.707107 0.707107 18.8301 7.125)" fill="#1565C0"/>
</g>
</svg>

<svg xmlns="http://www.w3.org/2000/svg" width="20" height="20" fill="none" viewBox="0 0 20 20"><path fill="#29b6f6" d="m7.434 16.683 9.416-9.416c.65-.65.777-1.33.289-1.818-.45-.45-1.527-1.544-2.268-2.285-.856-.856-1.685-.27-2.065.059L3.39 12.639c-.377.377-.514.764-.536.91-.05.527-.168 1.802-.232 2.697-.063.895.787 1.186 1.22 1.22a287 287 0 0 1 2.65-.278c.505-.047.839-.357.942-.505"/><mask id="a" width="16" height="16" x="2" y="2" maskUnits="userSpaceOnUse" style="mask-type:alpha"><path fill="#d9d9d9" d="m7.433 16.683 9.416-9.416c.65-.65.777-1.33.289-1.818-.45-.45-1.527-1.544-2.268-2.285-.855-.856-1.685-.27-2.065.059L3.39 12.639c-.378.377-.515.764-.537.91-.05.527-.168 1.802-.232 2.697-.063.895.787 1.186 1.22 1.22a287 287 0 0 1 2.65-.278c.505-.047.839-.357.942-.505"/></mask><g mask="url(#a)"><path fill="#1565c0" d="m18.83 7.125-5.876-5.876-3.42 3.42 5.875 5.877z"/></g></svg>
